FINK
CUT[MAIGLOECKCHEN LAEUTET IN DEM TAL]
REG[Europa, Mitteleuropa, Deutschland]
KEY[F0230  16  E 2/4]
MEL[-5_  1_.-5-4_-2_  -1_-3_-2_
    -2_  -3_-5_-4_-3_  -2__0_
    -5_  1_.-5-4_-2_  -1_-3_-2_
    -2_  -5_.-6-4#_-2_  --7__
    -7__  1_.-3-4#_-6_  -5__0_
    -6_  -2_.-2-2_-3_  -4_.-5-4_
    -6_  -2_.-2-4_-3_  -4__0_
    -5_  -5_.-3-3_1_  1_.-6-6_
    2_  -7_.-5-6_-7_  1__
    1__  2_.2-7_-5_  1__0_ //] >>
FCT[Natur - Lied, Pflanzen; Tanz]
